X: 137
T:Hunt The Squirrel
% Nottingham Music Database
S:Playford, via EF
Y:AB
M:6/8
K:A
P:A
c/2B/2|"A"Aee e2f|"A"e3 c3|"A"ABc "D"B2A|"A/c+"ABc "E7/b"B2A|"A"Aee e2f|\
"A"e3 c3|"D"ABc "E7"B2A|[1"A"A3 A2:|[2 "A" A3 A3||
P:B
|:"D"d2e fed|"D/c+"d2e fed|"Bm"d2e f2g|"F#m"a3 agf|"A"ec2 ec2|"C#m"ec2 e3|\
"F#m"ABc "E7"B2A|"A"A3 A3:|


